img/icons/Instagram.svg

<svg width="36" height="36" viewBox="0 0 36 36" fill="none" xmlns="http://www.w3.org/2000/svg">
<path d="M17.9985 11.0654C16.159 11.0654 14.3948 11.7962 13.094 13.0969C11.7933 14.3977 11.0625 16.1619 11.0625 18.0014C11.0625 19.841 11.7933 21.6052 13.094 22.9059C14.3948 24.2067 16.159 24.9374 17.9985 24.9374C19.838 24.9374 21.6022 24.2067 22.903 22.9059C24.2037 21.6052 24.9345 19.841 24.9345 18.0014C24.9345 16.1619 24.2037 14.3977 22.903 13.0969C21.6022 11.7962 19.838 11.0654 17.9985 11.0654ZM17.9985 22.5059C16.8034 22.5059 15.6573 22.0312 14.8123 21.1862C13.9672 20.3411 13.4925 19.195 13.4925 17.9999C13.4925 16.8049 13.9672 15.6587 14.8123 14.8137C15.6573 13.9687 16.8034 13.4939 17.9985 13.4939C19.1936 13.4939 20.3397 13.9687 21.1847 14.8137C22.0298 15.6587 22.5045 16.8049 22.5045 17.9999C22.5045 19.195 22.0298 20.3411 21.1847 21.1862C20.3397 22.0312 19.1936 22.5059 17.9985 22.5059Z" fill="white" fill-opacity="0.78"/>
<path d="M25.209 12.4275C26.102 12.4275 26.826 11.7035 26.826 10.8105C26.826 9.91744 26.102 9.19348 25.209 9.19348C24.316 9.19348 23.592 9.91744 23.592 10.8105C23.592 11.7035 24.316 12.4275 25.209 12.4275Z" fill="white" fill-opacity="0.78"/>
<path d="M30.7995 9.16645C30.4523 8.26972 29.9216 7.45537 29.2415 6.77553C28.5614 6.0957 27.7469 5.56535 26.85 5.21845C25.8005 4.82448 24.6918 4.61146 23.571 4.58845C22.1265 4.52545 21.669 4.50745 18.006 4.50745C14.343 4.50745 13.8735 4.50745 12.441 4.58845C11.3211 4.61028 10.2131 4.82335 9.16501 5.21845C8.26791 5.56495 7.45315 6.09515 6.77301 6.77504C6.09286 7.45493 5.56235 8.26948 5.21551 9.16645C4.82146 10.2159 4.60893 11.3247 4.58701 12.4454C4.52251 13.8884 4.50301 14.3459 4.50301 18.0104C4.50301 21.6734 4.50301 22.1399 4.58701 23.5754C4.60951 24.6974 4.82101 25.8044 5.21551 26.8559C5.56332 27.7526 6.09435 28.5668 6.77466 29.2466C7.45497 29.9264 8.2696 30.4568 9.16651 30.8039C10.2127 31.2137 11.3211 31.442 12.444 31.4789C13.8885 31.5419 14.346 31.5614 18.009 31.5614C21.672 31.5614 22.1415 31.5614 23.574 31.4789C24.6947 31.4562 25.8034 31.2437 26.853 30.8505C27.7496 30.5027 28.5639 29.9719 29.244 29.2919C29.924 28.6119 30.4548 27.7976 30.8025 26.9009C31.197 25.851 31.4085 24.7439 31.431 23.622C31.4955 22.1789 31.515 21.7214 31.515 18.0569C31.515 14.3924 31.515 13.9274 31.431 12.4919C31.4135 11.3554 31.1999 10.2303 30.7995 9.16645ZM28.9725 23.4644C28.9628 24.3289 28.805 25.1853 28.506 25.9964C28.2807 26.5798 27.9359 27.1094 27.4936 27.5515C27.0513 27.9935 26.5214 28.338 25.938 28.5629C25.1358 28.8606 24.2885 29.0184 23.433 29.0294C22.008 29.0954 21.606 29.1119 17.952 29.1119C14.295 29.1119 13.9215 29.1119 12.4695 29.0294C11.6144 29.019 10.7675 28.8612 9.96601 28.5629C9.38054 28.3394 8.84851 27.9955 8.40434 27.5534C7.96017 27.1113 7.61376 26.5809 7.38751 25.9964C7.09268 25.194 6.93497 24.3477 6.92101 23.4929C6.85651 22.0679 6.84151 21.6659 6.84151 18.0119C6.84151 14.3564 6.84151 13.9829 6.92101 12.5294C6.9307 11.6655 7.08849 10.8096 7.38751 9.99895C7.84501 8.81545 8.78251 7.88395 9.96601 7.43095C10.7679 7.13416 11.6145 6.97639 12.4695 6.96445C13.896 6.89995 14.2965 6.88195 17.952 6.88195C21.6075 6.88195 21.9825 6.88195 23.433 6.96445C24.2886 6.97474 25.136 7.13255 25.938 7.43095C26.5214 7.65636 27.0512 8.00125 27.4935 8.44349C27.9357 8.88573 28.2806 9.41555 28.506 9.99895C28.8008 10.8014 28.9585 11.6477 28.9725 12.5024C29.037 13.9289 29.0535 14.3294 29.0535 17.9849C29.0535 21.6389 29.0535 22.0319 28.989 23.466H28.9725V23.4644Z" fill="white" fill-opacity="0.78"/>
</svg>

<svg xmlns="http://www.w3.org/2000/svg" width="36" height="36" fill="none"><path fill="#fff" fill-opacity=".78" d="M18 11.07a6.94 6.94 0 1 0 0 13.87 6.94 6.94 0 0 0 0-13.87Zm0 11.44a4.5 4.5 0 1 1 0-9.02 4.5 4.5 0 0 1 0 9.02ZM25.2 12.43a1.62 1.62 0 1 0 0-3.24 1.62 1.62 0 0 0 0 3.24Z"/><path fill="#fff" fill-opacity=".78" d="M30.8 9.17a6.9 6.9 0 0 0-3.95-3.95 9.9 9.9 0 0 0-3.28-.63c-1.44-.06-1.9-.08-5.56-.08-3.67 0-4.14 0-5.57.08a9.83 9.83 0 0 0-3.27.63 6.9 6.9 0 0 0-3.95 3.95 9.88 9.88 0 0 0-.63 3.28c-.07 1.44-.09 1.9-.09 5.56 0 3.66 0 4.13.09 5.57a9.9 9.9 0 0 0 .63 3.28 6.91 6.91 0 0 0 3.95 3.94c1.04.41 2.15.64 3.27.68 1.45.06 1.9.08 5.57.08 3.66 0 4.13 0 5.56-.08a9.92 9.92 0 0 0 3.28-.63 6.92 6.92 0 0 0 3.95-3.95c.4-1.05.6-2.16.63-3.28.07-1.44.09-1.9.09-5.56 0-3.67 0-4.13-.09-5.57a9.87 9.87 0 0 0-.63-3.32Zm-1.83 14.3a7.57 7.57 0 0 1-.46 2.53 4.48 4.48 0 0 1-2.57 2.56c-.8.3-1.65.46-2.5.47a91.3 91.3 0 0 1-5.49.08c-3.65 0-4.03 0-5.48-.08a7.44 7.44 0 0 1-2.5-.47A4.48 4.48 0 0 1 7.39 26c-.3-.8-.46-1.65-.47-2.5A93.86 93.86 0 0 1 6.84 18c0-3.65 0-4.03.08-5.48.01-.86.17-1.72.47-2.53a4.48 4.48 0 0 1 2.58-2.57c.8-.3 1.64-.45 2.5-.47 1.43-.06 1.83-.08 5.48-.08 3.66 0 4.03 0 5.48.08.86.01 1.7.17 2.5.47A4.49 4.49 0 0 1 28.52 10c.3.8.45 1.65.46 2.5.07 1.43.08 1.83.08 5.48 0 3.66 0 4.05-.06 5.49h-.02Z"/></svg>
